X: 9
T: Kitty Lie Over
R: jig
M: 6/8
L: 1/8
K: Dmaj
B| AFD DFA |ABd B2 A|ABA F3|GFG E2 B|
AFD DFA |ABd B2 A|ABA F2 E|EDD D3 :|
fdd ede |fdd d2 g|fef def|gfg efg|
afd B2 A|AdF G3|ABA F2 E|EDD D3 :|


Tune 948	Setting 14139

